X:417
T:Lilli Burlero
N:Also for the dance "Hush-a-bye Baby" by Colin Hume
C:Henry Playford, 1690
S:Colin Hume's website,  colinhume.com  - chords can also be printed below the stave.
Q:3/8=112
M:6/8
L:1/8
K:G
P:A
"G"G>AG "Em"B2B | "Am"A>BA "D7"c3 | "G"BdG "C"c2B | "D7"AGF "G"G3 |\
"Em"G>AG "Bm"B2B | "Am"A>BA "D7"c3 | "G"BdG "C"c2B | "D7"AGF "G"G3 |
P:B
|: "G"g2f g2d | "Dm"=f2f "C"e2d | "Am"efg "G"g2d | "Em"edB "D"A2d |\
"C"edc "G/B"Bcd | "Am"edc "G"Bcd | "Em"edB "Am"c2B | "D7"AGF "G"G3 :|

